X:46
T:Scotland the Brave 2/15a
R:March
C:CD 2, track15a
B:Scan Tester,"I Never Played To Many Posh Dances"
Z:Chris Partington, 2011 <www.cpartington.plus.com>
M:C
L:1/8
Q:1/2=100
K:C
C4 C3D|E2C2 E2G2|c4c3c|c2G2 E2C2|F4 A3F|E2G2 E2C2|D4 G3A|G2F2 E2D2|
C4 C3D|E2C2 E2G2|c4c3c|c2G2 E2C2|F4 A3F|E2G2 E2C2|D4C3C|C4-C4||
d4 d3d|d2B2 G4|c4e3d|c2A2 G4|c4 c2c2|B4 c2B2|A2c2 B2A2|G2F2 E2D2|
C4 C3D|E2C2 E2G2|c4c3c|c2G2 E2C2|F4 A2F2|E2G2 E2C2|D4C3C|C4-C4|]

